dist/svg/u1F3E4.svg

<?xml version="1.0" encoding="UTF-8"?><svg id="Layer_1" xmlns="http://www.w3.org/2000/svg" viewBox="0 0 40 40"><path d="M5.49795,35.65562h29.00409c1.2482,0,2.26006-1.01186,2.26006-2.26006V14.26745H3.2379v19.1281c0,1.2482,1.01186,2.26006,2.26006,2.26006Z" style="fill:#cecfcf;"/><path d="M36.7621,14.26745H3.2379l3.14289-4.43772h26.70801c.33268,0,.6447,.16136,.83697,.43285l2.83634,4.00487Z" style="fill:#a13e20; fill-rule:evenodd;"/><path d="M29.08717,9.82973H10.91283v25.82588H29.08717V9.82973Z" style="fill:#e0e0e0;"/><rect width="40" height="40" style="fill:none;"/><path d="M20,29.00547h0c1.5592,0,2.82507,1.26587,2.82507,2.82507v3.82508h-5.65015v-3.82508c0-1.5592,1.26587-2.82507,2.82507-2.82507Z" style="fill:#6b7683;"/><path d="M29.08717,9.82973H10.91283l3.88266-5.08236c.19403-.25399,.49538-.403,.815-.403h8.77902c.31962,0,.62097,.14901,.815,.403l3.88266,5.08236Z" style="fill:#a13e20; fill-rule:evenodd;"/><path d="M33.94578,28.64852c0,.24822-.20122,.44943-.44943,.44943h-1.79774c-.24822,0-.44943-.20122-.44943-.44943v-1.79887c0-.74465,.60365-1.3483,1.3483-1.3483h0c.74465,0,1.3483,.60365,1.3483,1.3483v1.79887Zm0-6.24921c0,.24822-.20122,.44943-.44943,.44943h-1.79774c-.24822,0-.44943-.20122-.44943-.44943v-1.79887c0-.74465,.60365-1.3483,1.3483-1.3483h0c.74465,0,1.3483,.60365,1.3483,1.3483v1.79887Z" style="fill:#8a94a0;"/><path d="M5.64227,26.84965c0-.74465,.60365-1.3483,1.3483-1.3483h0c.74465,0,1.3483,.60365,1.3483,1.3483v1.79887c0,.24822-.20122,.44943-.44943,.44943h-1.79774c-.24822,0-.44943-.20122-.44943-.44943v-1.79887Zm0-6.24921c0-.74465,.60365-1.3483,1.3483-1.3483h0c.74465,0,1.3483,.60365,1.3483,1.3483v1.79887c0,.24822-.20122,.44943-.44943,.44943h-1.79774c-.24822,0-.44943-.20122-.44943-.44943v-1.79887Z" style="fill:#8a94a0;"/><g><path d="M26.50021,14.52864c.24398-.3166,.01829-.77545-.38142-.77545h-4.11039c-.3997,0-.62539,.45883-.38142,.77544l.60825,.78936c.74027,.96068,1.14172,2.13938,1.14172,3.35219v2.46492h1.37334v-2.465c0-1.21286,.40149-2.3916,1.14181-3.35231l.60812-.78914Z" style="fill:#ff9e00;"/><path d="M23.84332,23.70218c-.89291,1.23521-2.34057,2.04539-3.97817,2.05954h0c-2.73385,.02337-4.97666-2.18173-4.99971-4.91563-.01105-1.32429,.49561-2.57454,1.42174-3.51756,.92852-.94473,2.16908-1.47118,3.49305-1.48218,1.32424-.01138,2.57386,.49339,3.51807,1.42183,.9444,.92857,1.47086,2.16913,1.4821,3.49356,.00954,1.0962-.33927,2.11346-.93708,2.94044Zm-3.99197,.45414c1.84875-.01576,3.33934-1.53305,3.32372-3.38087-.00775-.89567-.3634-1.73474-1.00206-2.36239s-1.4835-.96934-2.37899-.96146c-.89523,.00752-1.73413,.3633-2.36178,1.00196-.62737,.6394-.96908,1.48314-.96151,2.37868,.01545,1.84879,1.5323,3.33961,3.38061,3.32408h0Z" style="fill:#ffc100;"/><polygon points="19.60967 25.75602 14.59202 25.80528 14.57978 24.18107 19.59742 24.13181 19.60967 25.75602" style="fill:#ffc100;"/><path d="M14.78811,24.17915l.00012,1.62261-.55073,.35683c-.36141,.23416-.83857-.02521-.83861-.45585l-.0001-1.42433c-.00004-.43063,.47708-.69009,.83853-.45599l.55079,.35673Z" style="fill:#ff9e00;"/></g></svg>

<svg id="Layer_1" data-name="Layer 1" xmlns="http://www.w3.org/2000/svg" viewBox="0 0 40 40"><defs><style>.cls-1{fill:#cecfcf;}.cls-2{fill:#a13e20;fill-rule:evenodd;}.cls-3{fill:#e0e0e0;}.cls-4{fill:none;}.cls-5{fill:#6b7683;}.cls-6{fill:#8a94a0;}.cls-7{fill:#ff9e00;}.cls-8{fill:#ffc100;}</style></defs><path class="cls-1" d="M5.5,35.656h29a2.26,2.26,0,0,0,2.26-2.26V14.267H3.238V33.4A2.26,2.26,0,0,0,5.5,35.656Z"/><path class="cls-2" d="M36.762,14.267H3.238L6.381,9.83H33.089a1.026,1.026,0,0,1,.837.433Z"/><path class="cls-3" d="M29.087,9.83H10.913V35.656H29.087Z"/><rect class="cls-4" width="40" height="40"/><path class="cls-5" d="M20,29.005h0a2.825,2.825,0,0,1,2.825,2.825v3.825a0,0,0,0,1,0,0h-5.65a0,0,0,0,1,0,0V31.831A2.825,2.825,0,0,1,20,29.005Z"/><path class="cls-2" d="M29.087,9.83H10.913L14.8,4.747a1.028,1.028,0,0,1,.815-.4h8.78a1.028,1.028,0,0,1,.815.4Z"/><path class="cls-6" d="M33.946,28.649a.449.449,0,0,1-.45.449H31.7a.449.449,0,0,1-.45-.449v-1.8A1.349,1.349,0,0,1,32.6,25.5h0a1.349,1.349,0,0,1,1.349,1.349Zm0-6.25a.449.449,0,0,1-.45.45H31.7a.449.449,0,0,1-.45-.45V20.6A1.349,1.349,0,0,1,32.6,19.252h0A1.349,1.349,0,0,1,33.946,20.6Z"/><path class="cls-6" d="M5.642,26.85A1.349,1.349,0,0,1,6.991,25.5h0A1.349,1.349,0,0,1,8.339,26.85v1.8a.449.449,0,0,1-.45.449h-1.8a.449.449,0,0,1-.45-.449Zm0-6.25a1.349,1.349,0,0,1,1.349-1.348h0A1.349,1.349,0,0,1,8.339,20.6v1.8a.449.449,0,0,1-.45.45h-1.8a.449.449,0,0,1-.45-.45Z"/><path class="cls-7" d="M26.5,14.529a.482.482,0,0,0-.381-.776H22.008a.482.482,0,0,0-.381.776l.608.789a5.494,5.494,0,0,1,1.142,3.352v2.465H24.75V18.67a5.492,5.492,0,0,1,1.142-3.352Z"/><path class="cls-8" d="M23.843,23.7a4.955,4.955,0,0,1-3.978,2.06h0a4.962,4.962,0,1,1,3.978-2.06Zm-3.992.454a3.353,3.353,0,1,0-3.38-3.324,3.356,3.356,0,0,0,3.38,3.324Z"/><polygon class="cls-8" points="19.61 25.756 14.592 25.805 14.58 24.181 19.597 24.132 19.61 25.756"/><path class="cls-7" d="M14.788,24.179V25.8l-.55.357A.544.544,0,0,1,13.4,25.7V24.278a.543.543,0,0,1,.838-.456Z"/></svg>
